docs/images/icons/durability.svg

<svg width="52" height="67" viewBox="0 0 52 67" fill="none" xmlns="http://www.w3.org/2000/svg">
<path d="M48.0055 62.2703H3.79901C1.69921 62.2703 0 60.6125 0 58.5639V4.65385C0 2.60527 1.69921 0.94751 3.79901 0.94751H48.0055C50.1053 0.94751 51.8045 2.60527 51.8045 4.65385V58.5639C51.8045 60.6125 50.1053 62.2703 48.0055 62.2703ZM3.79901 2.96918C2.84583 2.96918 2.07222 3.72392 2.07222 4.65385V58.5639C2.07222 59.4939 2.84583 60.2486 3.79901 60.2486H48.0055C48.9586 60.2486 49.7323 59.4939 49.7323 58.5639V4.65385C49.7323 3.72392 48.9586 2.96918 48.0055 2.96918H3.79901Z" fill="#3742F3"/>
<path d="M34.619 10.1793C32.906 10.1793 31.5107 8.81814 31.5107 7.14692C31.5107 5.47571 32.906 4.1145 34.619 4.1145C36.332 4.1145 37.7272 5.47571 37.7272 7.14692C37.7272 8.81814 36.332 10.1793 34.619 10.1793ZM34.619 6.13609C34.0526 6.13609 33.5829 6.59432 33.5829 7.14692C33.5829 7.69952 34.0526 8.15776 34.619 8.15776C35.1854 8.15776 35.6551 7.69952 35.6551 7.14692C35.6551 6.59432 35.1854 6.13609 34.619 6.13609Z" fill="#3742F3"/>
<path d="M42.9076 10.1793C41.1946 10.1793 39.7993 8.81814 39.7993 7.14692C39.7993 5.47571 41.1946 4.1145 42.9076 4.1145C44.6206 4.1145 46.0158 5.47571 46.0158 7.14692C46.0158 8.81814 44.6206 10.1793 42.9076 10.1793ZM42.9076 6.13609C42.3412 6.13609 41.8715 6.59432 41.8715 7.14692C41.8715 7.69952 42.3411 8.15776 42.9076 8.15776C43.474 8.15776 43.9437 7.69952 43.9437 7.14692C43.9437 6.59432 43.474 6.13609 42.9076 6.13609Z" fill="#3742F3"/>
<path d="M50.7684 13.2526H1.03611C0.46972 13.2526 0 12.7944 0 12.2418C0 11.6892 0.469693 11.231 1.03611 11.231H50.7684C51.3348 11.231 51.8045 11.6892 51.8045 12.2418C51.8045 12.7944 51.3348 13.2526 50.7684 13.2526Z" fill="#3742F3"/>
<path d="M13.8145 1.95825H15.8867V12.2279H13.8145V1.95825Z" fill="#3742F3"/>
<path d="M28.4999 8.15741H20.0454C19.479 8.15741 19.0093 7.69918 19.0093 7.14658C19.0093 6.59398 19.479 6.13574 20.0454 6.13574H28.4999C29.0663 6.13574 29.536 6.59398 29.536 7.14658C29.536 7.69918 29.0663 8.15741 28.4999 8.15741Z" fill="#3742F3"/>
<path d="M25.9023 56.2055C15.0443 56.2055 6.21631 47.5934 6.21631 36.9997C6.21631 26.4061 15.0438 17.7939 25.9023 17.7939C36.7608 17.7939 45.5883 26.4061 45.5883 36.9997C45.5883 47.5934 36.7608 56.2055 25.9023 56.2055ZM25.9023 19.8158C16.1911 19.8158 8.28871 27.5249 8.28871 36.9997C8.28871 46.4745 16.1906 54.1837 25.9023 54.1837C35.614 54.1837 43.5159 46.4745 43.5159 36.9997C43.5159 27.5249 35.614 19.8158 25.9023 19.8158Z" fill="#3742F3"/>
<path d="M39.1368 39.358C36.6364 39.358 35.324 38.5629 34.1773 37.862C33.1274 37.2151 32.2156 36.6625 30.3093 36.6625C28.4029 36.6625 27.4911 37.2151 26.4412 37.862C25.2946 38.5628 23.9823 39.358 21.4818 39.358C18.9813 39.358 17.669 38.5629 16.5223 37.862C15.4724 37.2151 14.5745 36.6625 12.6543 36.6625C12.0879 36.6625 11.6182 36.2043 11.6182 35.6517C11.6182 35.0991 12.0879 34.6409 12.6543 34.6409C15.1547 34.6409 16.4671 35.436 17.6137 36.1369C18.6636 36.7838 19.5615 37.3364 21.468 37.3364C23.3744 37.3364 24.2861 36.7838 25.336 36.1369C26.4827 35.4361 27.795 34.6409 30.2955 34.6409C32.796 34.6409 34.1083 35.436 35.2549 36.1369C36.3048 36.7838 37.2166 37.3364 39.123 37.3364C39.6894 37.3364 40.1591 37.7946 40.1591 38.3472C40.1591 38.8998 39.6894 39.358 39.123 39.358H39.1368Z" fill="#3742F3"/>
<path d="M25.9025 51.4881C17.7105 51.4881 11.0518 44.992 11.0518 36.9997C11.0518 29.0074 17.7103 22.5112 25.9025 22.5112C34.0946 22.5112 40.7532 29.0074 40.7532 36.9997C40.7532 44.992 34.0946 51.4881 25.9025 51.4881ZM25.9025 24.5331C18.857 24.5331 13.1242 30.1263 13.1242 36.9997C13.1242 43.8731 18.8572 49.4663 25.9025 49.4663C32.9477 49.4663 38.6808 43.8731 38.6808 36.9997C38.6808 30.1263 32.9477 24.5331 25.9025 24.5331Z" fill="#3742F3"/>
<path d="M9.32468 66.3131C8.75829 66.3131 8.28857 65.8549 8.28857 65.3023V61.6768C8.28857 61.1243 8.75827 60.666 9.32468 60.666C9.8911 60.666 10.3608 61.1242 10.3608 61.6768V65.3023C10.3608 65.8549 9.8911 66.3131 9.32468 66.3131Z" fill="#3742F3"/>
<path d="M42.4795 66.3131C41.9131 66.3131 41.4434 65.8549 41.4434 65.3023V61.6768C41.4434 61.1243 41.9131 60.666 42.4795 60.666C43.0459 60.666 43.5156 61.1242 43.5156 61.6768V65.3023C43.5156 65.8549 43.0459 66.3131 42.4795 66.3131Z" fill="#3742F3"/>
</svg>

<svg width="52" height="67" fill="none" xmlns="http://www.w3.org/2000/svg"><path d="M48.005 62.27H3.8c-2.101 0-3.8-1.658-3.8-3.706V4.654C0 2.605 1.7.948 3.799.948h44.206c2.1 0 3.8 1.657 3.8 3.706v53.91c0 2.048-1.7 3.706-3.8 3.706ZM3.8 2.97c-.953 0-1.727.754-1.727 1.684v53.91c0 .93.774 1.685 1.727 1.685h44.206c.954 0 1.727-.755 1.727-1.685V4.654c0-.93-.773-1.685-1.727-1.685H3.8Z" fill="#3742F3"/><path d="M34.619 10.18c-1.713 0-3.108-1.362-3.108-3.033 0-1.671 1.395-3.033 3.108-3.033s3.108 1.362 3.108 3.033c0 1.671-1.395 3.032-3.108 3.032Zm0-4.044c-.566 0-1.036.458-1.036 1.01 0 .554.47 1.012 1.036 1.012.566 0 1.036-.458 1.036-1.011 0-.553-.47-1.01-1.036-1.01Zm8.289 4.044c-1.713 0-3.109-1.362-3.109-3.033 0-1.671 1.396-3.033 3.109-3.033s3.108 1.362 3.108 3.033c0 1.671-1.395 3.032-3.108 3.032Zm0-4.044c-.567 0-1.037.458-1.037 1.01 0 .554.47 1.012 1.037 1.012.566 0 1.036-.458 1.036-1.011 0-.553-.47-1.01-1.036-1.01Zm7.86 7.117H1.036C.47 13.253 0 12.794 0 12.242c0-.553.47-1.011 1.036-1.011h49.732c.567 0 1.036.458 1.036 1.01 0 .553-.47 1.012-1.036 1.012Z" fill="#3742F3"/><path d="M13.815 1.958h2.072v10.27h-2.072V1.958ZM28.5 8.157h-8.455c-.566 0-1.036-.458-1.036-1.01 0-.553.47-1.011 1.036-1.011H28.5c.566 0 1.036.458 1.036 1.01 0 .553-.47 1.011-1.036 1.011Zm-2.598 48.049C15.044 56.206 6.216 47.593 6.216 37c0-10.594 8.828-19.206 19.686-19.206 10.859 0 19.686 8.612 19.686 19.206 0 10.593-8.827 19.206-19.686 19.206Zm0-36.39C16.192 19.816 8.29 27.525 8.29 37c0 9.474 7.902 17.184 17.613 17.184 9.712 0 17.614-7.71 17.614-17.184 0-9.475-7.902-17.184-17.614-17.184Z" fill="#3742F3"/><path d="M39.137 39.358c-2.5 0-3.813-.795-4.96-1.496-1.05-.647-1.961-1.2-3.868-1.2-1.906 0-2.818.553-3.868 1.2-1.146.7-2.459 1.496-4.96 1.496-2.5 0-3.812-.795-4.959-1.496-1.05-.647-1.947-1.2-3.868-1.2-.566 0-1.036-.458-1.036-1.01 0-.553.47-1.011 1.036-1.011 2.5 0 3.813.795 4.96 1.496 1.05.647 1.947 1.2 3.854 1.2 1.906 0 2.818-.553 3.868-1.2 1.147-.7 2.459-1.496 4.96-1.496 2.5 0 3.812.795 4.959 1.496 1.05.647 1.962 1.2 3.868 1.2.566 0 1.036.458 1.036 1.01 0 .553-.47 1.011-1.036 1.011h.014Z" fill="#3742F3"/><path d="M25.902 51.488c-8.192 0-14.85-6.496-14.85-14.488 0-7.993 6.658-14.489 14.85-14.489 8.193 0 14.851 6.496 14.851 14.489 0 7.992-6.658 14.488-14.85 14.488Zm0-26.955c-7.045 0-12.778 5.593-12.778 12.467 0 6.873 5.733 12.466 12.778 12.466 7.046 0 12.779-5.593 12.779-12.466 0-6.874-5.733-12.467-12.778-12.467ZM9.325 66.313c-.567 0-1.036-.458-1.036-1.01v-3.626c0-.553.47-1.011 1.036-1.011.566 0 1.036.458 1.036 1.01v3.626c0 .553-.47 1.011-1.036 1.011Zm33.155 0c-.567 0-1.037-.458-1.037-1.01v-3.626c0-.553.47-1.011 1.037-1.011.566 0 1.036.458 1.036 1.01v3.626c0 .553-.47 1.011-1.036 1.011Z" fill="#3742F3"/></svg>
